Pods/ProtonCore-UIFoundations/libraries/UIFoundations/Sources/Assets.xcassets/Images/IconSet/ic-swipe-left.imageset/ic-swipe-left.svg

<svg width="24" height="24" viewBox="0 0 24 24" fill="none" xmlns="http://www.w3.org/2000/svg">
<path fill-rule="evenodd" clip-rule="evenodd" d="M6.66595 3.74273C9.74745 0.949032 14.4853 0.70465 17.8606 3.36554C18.1859 3.62198 18.6574 3.56617 18.9139 3.24088C19.1703 2.91559 19.1145 2.44401 18.7892 2.18757C14.8448 -0.921956 9.31674 -0.648334 5.70068 2.59337C5.01662 2.16499 4.12445 2.11936 3.37664 2.55161C2.29895 3.17455 1.93037 4.55342 2.55205 5.63145L8.1615 15.3587L6.43594 15.0955C5.19885 14.9069 4.06758 15.8197 3.98724 17.0676C3.9189 18.1291 4.64245 19.0797 5.68472 19.2945L12.7104 20.7427C12.9209 20.786 13.1031 20.9175 13.2108 21.1043L13.2188 21.1182L14.3509 22.9011C14.5729 23.2508 15.0364 23.3542 15.386 23.1322C15.7357 22.9102 15.8392 22.4467 15.6172 22.097L14.5014 20.3398C14.1786 19.7901 13.6381 19.4023 13.0132 19.2735L5.98753 17.8254C5.67926 17.7619 5.46379 17.4801 5.48414 17.164C5.50807 16.7923 5.84438 16.5227 6.20983 16.5784L8.85898 16.9824C9.73179 17.1154 10.3665 16.1797 9.92738 15.4182L3.85146 4.8821C3.64293 4.5205 3.76704 4.05851 4.1273 3.85027C4.48705 3.64233 4.94746 3.76538 5.1557 4.12647L7.57529 8.32224C8.09203 9.21829 9.15213 9.64788 10.1468 9.36303L13.4707 8.41105L16.1837 7.76893C16.5068 7.69244 16.8424 7.83708 17.0089 8.12588L20.1813 13.627C20.3074 13.8458 20.3161 14.1133 20.2042 14.3398L19.7162 15.3278C19.3825 16.0035 19.4082 16.8013 19.7847 17.4541L19.7951 17.4722L21.8722 20.6518C22.0988 20.9986 22.5635 21.096 22.9103 20.8695C23.2571 20.643 23.3545 20.1782 23.128 19.8314L21.0756 16.6897C20.9576 16.4739 20.9519 16.2134 21.0612 15.9921L21.5491 15.004C21.8828 14.3283 21.8572 13.5305 21.4807 12.8777L18.3083 7.37653C17.811 6.51419 16.8071 6.07992 15.8382 6.30925L13.0913 6.95942L9.73376 7.921C9.40203 8.01601 9.04776 7.87297 8.87471 7.57289L6.66595 3.74273Z" fill="#0C0C14"/>
</svg>

<svg xmlns="http://www.w3.org/2000/svg" width="24" height="24" viewBox="0 0 24 24">
  <g class="ic-swipe-left">
    <path fill-rule="evenodd" d="M6.666 3.743a8.681 8.681 0 0 1 11.195-.377.75.75 0 1 0 .928-1.178c-3.944-3.11-9.472-2.836-13.088.405a2.256 2.256 0 0 0-3.149 3.038l5.61 9.728-1.726-.264a2.132 2.132 0 0 0-.751 4.2l7.025 1.448c.21.043.393.175.5.361l.009.014 1.132 1.783a.75.75 0 1 0 1.266-.804l-1.116-1.757a2.254 2.254 0 0 0-1.488-1.067l-7.025-1.448a.633.633 0 0 1 .222-1.247l2.649.404a1.05 1.05 0 0 0 1.068-1.564L3.851 4.882a.756.756 0 0 1 .276-1.032.752.752 0 0 1 1.029.276l2.42 4.196a2.253 2.253 0 0 0 2.57 1.041l3.325-.952 2.713-.642a.752.752 0 0 1 .825.357l3.172 5.501a.757.757 0 0 1 .023.713l-.488.988a2.256 2.256 0 0 0 .069 2.126l.01.018 2.077 3.18a.75.75 0 0 0 1.256-.82l-2.052-3.142a.756.756 0 0 1-.015-.698l.488-.988a2.256 2.256 0 0 0-.068-2.126l-3.173-5.501a2.253 2.253 0 0 0-2.47-1.068l-2.747.65-3.357.962a.752.752 0 0 1-.86-.348l-2.208-3.83Z" class="Icon"/>
  </g>
</svg>
